static/assets/template/assets/img/icons/essential/detailed/Delivery_3_1_.svg

<svg height="151" viewBox="0 0 149 151" width="149" xmlns="http://www.w3.org/2000/svg"><g fill="none" fill-rule="evenodd" transform="translate(2 1)"><path d="m118.8 25.3-46-24.4-45.9 24.4-.1-.1v51.7l46 24.4 46.1-24.4v-51.7z" fill-rule="nonzero"/><path d="m118.9 25.2v51.7l-46.1 24.4-46-24.4v-51.7l.1.1 45.9-24.4 45.1 23.9.9.5z" fill-rule="nonzero"/><path d="m117.9 24.8-45.1 24.8-46-24.3v-.1l.1.1 45.9-24.4z" fill-rule="nonzero"/><g stroke-linecap="round" stroke-linejoin="round" stroke-width="3"><g transform="translate(0 68)"><path d="m22.2 33.6-.1-.5-.1-.4c0-.2-6.2-25.6-6.3-25.8-1.4-6-8.8-8-13.1-3.7-.6.6-1 1.2-1 1.2-.1.1-.1.2-.2.3-1.8 3-1.3 2.6 2 28.1.3 2.6 1.1 5.2 2.3 7.5 1.2 2.4 3.1 6.2 6.4 12.8 2 4.1.1 4.3 20.4 14.4 4.3 2.2 7.1 6.6 7.1 11.4v1"/><path d="m1.3 4.5c-.4.5-.1.1-.6.6.3-.3.4-.5.6-.6z"/><path d="m31.9 49.3-7-7c-3.3-3.3-3.3-8.6 0-11.8 3.3-3.3 8.6-3.3 11.8 0l16.5 20.5c5 5.6 7.7 12.8 7.7 20.2v8.5"/></g><g transform="translate(84 68)"><g transform="translate(21)"><path d="m18.2 33.6.1-.5.1-.4c0-.2 6.2-25.6 6.3-25.8 1.4-6 8.8-8 13.1-3.7.6.6 1 1.2 1 1.2.1.1.1.2.2.3 1.8 3 1.3 2.6-2 28.1-.3 2.6-1.1 5.2-2.3 7.5-1.2 2.4-3.1 6.2-6.4 12.8-2 4.1-.1 4.3-20.4 14.4-4.3 2.2-7.1 6.6-7.1 11.4v1"/><path d="m39 4.5c.4.5.1.1.6.6-.2-.3-.4-.5-.6-.6z"/></g><path d="m29.4 49.3 7-7c3.3-3.3 3.3-8.6 0-11.8-3.3-3.3-8.6-3.3-11.8 0l-16.5 20.5c-5 5.6-7.7 12.8-7.7 20.2v8.5"/></g><path d="m36 30.1 36.8 19.5v51.7l-46-24.4v-51.7"/><path d="m72.8 101.3 46.1-24.4v-51.7l-46.1 24.4z"/><path d="m118.9 25.3-46.1-24.4-45.9 24.4"/><path d="m69.9 23.1-19.4-10.3"/><path d="m76.6 26.6-.6-.3"/><path d="m96.4 37.1-15.8-8.4"/></g></g></svg>

<?xml version="1.0" encoding="UTF-8"?>
<svg width="149px" height="151px" viewBox="0 0 149 151" version="1.1" xmlns="http://www.w3.org/2000/svg" xmlns:xlink="http://www.w3.org/1999/xlink">
    <!-- Generator: Sketch 51.2 (57519) - http://www.bohemiancoding.com/sketch -->
    <title>Delivery_3_1_</title>
    <desc>Created with Sketch.</desc>
    <defs></defs>
    <g id="Page-1" stroke="none" stroke-width="1" fill="none" fill-rule="evenodd">
        <g id="Delivery_3_1_" transform="translate(2.000000, 1.000000)">
            <polygon id="Shape" class="fill-neutral" fill-rule="nonzero" points="118.8 25.3 72.8 0.9 26.9 25.3 26.8 25.2 26.8 76.9 72.8 101.3 118.9 76.9 118.9 25.2"></polygon>
            <polygon id="Shape" class="fill-primary-300" fill-rule="nonzero" points="118.9 25.2 118.9 76.9 72.8 101.3 26.8 76.9 26.8 25.2 26.9 25.3 72.8 0.9 117.9 24.8 118.8 25.3"></polygon>
            <polygon id="Shape" class="fill-primary-100" fill-rule="nonzero" points="117.9 24.8 72.8 49.6 26.8 25.3 26.8 25.2 26.9 25.3 72.8 0.9"></polygon>
            <g id="Group" transform="translate(0.000000, 68.000000)" class="stroke-primary" stroke-linecap="round" stroke-linejoin="round" stroke-width="3">
                <g id="Shape">
                    <path d="M22.2,33.6 L22.1,33.1 L22,32.7 C22,32.5 15.8,7.1 15.7,6.9 C14.3,0.9 6.9,-1.1 2.6,3.2 C2,3.8 1.6,4.4 1.6,4.4 C1.5,4.5 1.5,4.6 1.4,4.7 C1.4,4.7 1.4,4.7 1.4,4.7 C-0.4,7.7 0.1,7.3 3.4,32.8 C3.7,35.4 4.5,38 5.7,40.3 C6.9,42.7 8.8,46.5 12.1,53.1 C14.1,57.2 12.2,57.4 32.5,67.5 C36.8,69.7 39.6,74.1 39.6,78.9 L39.6,79.9"></path>
                    <path d="M1.3,4.5 C0.9,5 1.2,4.6 0.7,5.1 C1,4.8 1.1,4.6 1.3,4.5 Z"></path>
                </g>
                <path d="M31.9,49.3 L24.9,42.3 C21.6,39 21.6,33.7 24.9,30.5 C28.2,27.2 33.5,27.2 36.7,30.5 L53.2,51 C58.2,56.6 60.9,63.8 60.9,71.2 L60.9,79.7" id="Shape"></path>
            </g>
            <g id="Group" transform="translate(84.000000, 68.000000)" class="stroke-primary" stroke-linecap="round" stroke-linejoin="round" stroke-width="3">
                <g transform="translate(21.000000, 0.000000)" id="Shape">
                    <path d="M18.2,33.6 L18.3,33.1 L18.4,32.7 C18.4,32.5 24.6,7.1 24.7,6.9 C26.1,0.9 33.5,-1.1 37.8,3.2 C38.4,3.8 38.8,4.4 38.8,4.4 C38.9,4.5 38.9,4.6 39,4.7 C39,4.7 39,4.7 39,4.7 C40.8,7.7 40.3,7.3 37,32.8 C36.7,35.4 35.9,38 34.7,40.3 C33.5,42.7 31.6,46.5 28.3,53.1 C26.3,57.2 28.2,57.4 7.9,67.5 C3.6,69.7 0.8,74.1 0.8,78.9 L0.8,79.9"></path>
                    <path d="M39,4.5 C39.4,5 39.1,4.6 39.6,5.1 C39.4,4.8 39.2,4.6 39,4.5 Z"></path>
                </g>
                <path d="M29.4,49.3 L36.4,42.3 C39.7,39 39.7,33.7 36.4,30.5 C33.1,27.2 27.8,27.2 24.6,30.5 L8.1,51 C3.1,56.6 0.4,63.8 0.4,71.2 L0.4,79.7" id="Shape"></path>
            </g>
            <polyline id="Shape" class="stroke-primary" stroke-width="3" stroke-linecap="round" stroke-linejoin="round" points="36 30.1 72.8 49.6 72.8 101.3 26.8 76.9 26.8 25.2"></polyline>
            <polygon id="Shape" class="stroke-primary" stroke-width="3" stroke-linecap="round" stroke-linejoin="round" points="72.8 101.3 118.9 76.9 118.9 25.2 72.8 49.6"></polygon>
            <polyline id="Shape" class="stroke-primary" stroke-width="3" stroke-linecap="round" stroke-linejoin="round" points="118.9 25.3 72.8 0.9 26.9 25.3"></polyline>
            <path d="M69.9,23.1 L50.5,12.8" id="Shape" class="stroke-primary" stroke-width="3" stroke-linecap="round" stroke-linejoin="round"></path>
            <path d="M76.6,26.6 L76,26.3" id="Shape" class="stroke-primary" stroke-width="3" stroke-linecap="round" stroke-linejoin="round"></path>
            <path d="M96.4,37.1 L80.6,28.7" id="Shape" class="stroke-primary" stroke-width="3" stroke-linecap="round" stroke-linejoin="round"></path>
        </g>
    </g>
</svg>
